src/assets/stat-icons/energyconsumption.svg

<svg id="light" enable-background="new 0 0 24 24" height="512" viewBox="0 0 24 24" width="512" xmlns="http://www.w3.org/2000/svg"><path d="m5.99 18.51c-.128 0-.256-.049-.354-.146-1.699-1.7-2.636-3.96-2.636-6.364s.937-4.664 2.637-6.363c.195-.195.512-.195.707 0s.195.512 0 .707c-1.511 1.511-2.344 3.519-2.344 5.656s.833 4.145 2.344 5.656c.195.195.195.512 0 .707-.098.098-.226.147-.354.147z"/><path d="m3.87 20.63c-.128 0-.256-.049-.354-.146-2.267-2.268-3.516-5.281-3.516-8.484s1.249-6.216 3.517-8.483c.195-.195.512-.195.707 0s.195.512 0 .707c-2.079 2.078-3.224 4.84-3.224 7.776s1.145 5.698 3.224 7.776c.195.195.195.512 0 .707-.098.098-.226.147-.354.147z"/><path d="m20.13 20.63c-.128 0-.256-.049-.354-.146-.195-.195-.195-.512 0-.707 2.079-2.079 3.224-4.841 3.224-7.777s-1.145-5.698-3.224-7.776c-.195-.195-.195-.512 0-.707s.512-.195.707 0c2.268 2.267 3.517 5.28 3.517 8.483s-1.249 6.216-3.517 8.483c-.097.098-.225.147-.353.147z"/><path d="m18.01 18.51c-.128 0-.256-.049-.354-.146-.195-.195-.195-.512 0-.707 1.511-1.512 2.344-3.52 2.344-5.657s-.833-4.145-2.344-5.656c-.195-.195-.195-.512 0-.707s.512-.195.707 0c1.7 1.699 2.637 3.959 2.637 6.363s-.937 4.664-2.637 6.363c-.097.098-.225.147-.353.147z"/><path d="m9.573 20c-.076 0-.152-.017-.223-.052-.214-.107-.322-.35-.259-.581l1.753-6.367h-3.344c-.189 0-.362-.107-.447-.276-.084-.169-.066-.372.047-.523l5.983-8c.138-.185.385-.251.596-.161.212.09.335.313.298.541l-.888 5.419h3.411c.19 0 .364.108.449.279.084.171.063.375-.053.526l-6.927 9c-.097.126-.245.195-.396.195zm-1.074-8h3.001c.156 0 .303.073.398.197.094.125.125.286.084.436l-1.25 4.542 4.752-6.175h-2.984c-.147 0-.286-.064-.381-.176s-.136-.26-.113-.405l.653-3.982z"/></svg>

<svg xmlns="http://www.w3.org/2000/svg" height="512" viewBox="0 0 24 24" width="512" xmlns:v="https://vecta.io/nano"><path d="M5.99 18.51a.5.5 0 0 1-.354-.146C3.937 16.664 3 14.404 3 12s.937-4.664 2.637-6.363a.5.5 0 0 1 .707.707C4.833 7.855 4 9.863 4 12s.833 4.145 2.344 5.656a.5.5 0 0 1-.354.854zm-2.12 2.12a.5.5 0 0 1-.354-.146C1.249 18.216 0 15.203 0 12s1.249-6.216 3.517-8.483a.5.5 0 0 1 .707.707C2.145 6.302 1 9.064 1 12s1.145 5.698 3.224 7.776a.5.5 0 0 1-.354.854zm16.26 0a.5.5 0 0 1-.354-.853C21.855 17.698 23 14.936 23 12s-1.145-5.698-3.224-7.776a.5.5 0 0 1 .707-.707C22.751 5.784 24 8.797 24 12s-1.249 6.216-3.517 8.483c-.097.098-.225.147-.353.147zm-2.12-2.12a.5.5 0 0 1-.354-.853A7.95 7.95 0 0 0 20 12c0-2.137-.833-4.145-2.344-5.656a.5.5 0 0 1 .707-.707C20.063 7.336 21 9.596 21 12s-.937 4.664-2.637 6.363c-.097.098-.225.147-.353.147zM9.573 20c-.076 0-.152-.017-.223-.052a.5.5 0 0 1-.259-.581L10.844 13H7.5a.5.5 0 0 1-.4-.799l5.983-8a.5.5 0 0 1 .894.38L13.089 10H16.5a.5.5 0 0 1 .396.805l-6.927 9a.5.5 0 0 1-.396.195zm-1.074-8H11.5a.5.5 0 0 1 .398.197c.094.125.125.286.084.436l-1.25 4.542L15.484 11H12.5a.5.5 0 0 1-.381-.176c-.095-.112-.136-.26-.113-.405l.653-3.982z"/></svg>
